loleaflet/images/lc_about.svg

<svg height="32" width="32" xmlns="http://www.w3.org/2000/svg"><path d="m29 16a13 13 0 0 1 -13 13 13 13 0 0 1 -13-13 13 13 0 0 1 13-13 13 13 0 0 1 13 13z" fill="#0063b1"/><path d="m28 16a12 12 0 0 1 -12 12 12 12 0 0 1 -12-12 12 12 0 0 1 12-12 12 12 0 0 1 12 12z" fill="#83beec"/><path d="m17.64092 7.0019531c-1.550397-.085042-2.360227 2.5001408-.886894 3.2070309 1.195304.506672 2.496425-.7611987 2.204418-2.0273434-.090621-.6592922-.663724-1.2018651-1.317524-1.1796875zm-.664744 5.6855469c-.249696-.0212-.542459.07136-.859552.318359-1.519556.684048-2.789931 1.80118-4.116624 2.802735.166504.467839.354396.846655.753603.328125.494929-.304362 2.153332-1.638824 1.987395-.332031-.530993 2.41814-1.17706 4.810737-1.671257 7.236328-.516753 1.328119.65799 2.531651 1.883155 1.667968 1.30227-.554883 2.421553-1.459952 3.566373-2.289062-.156204-.395946-.260481-.965074-.692085-.447266-.566719.265868-1.805288 1.520158-2.035242.486328.476035-2.61841 1.358674-5.138797 1.922458-7.736328.389121-.895755.01088-1.971539-.738224-2.035156z" fill="#fff"/></svg>

<?xml version="1.0" encoding="UTF-8" standalone="no"?>
<svg
   xmlns:dc="http://purl.org/dc/elements/1.1/"
   xmlns:cc="http://creativecommons.org/ns#"
   xmlns:rdf="http://www.w3.org/1999/02/22-rdf-syntax-ns#"
   xmlns:svg="http://www.w3.org/2000/svg"
   xmlns="http://www.w3.org/2000/svg"
   xmlns:sodipodi="http://sodipodi.sourceforge.net/DTD/sodipodi-0.dtd"
   xmlns:inkscape="http://www.inkscape.org/namespaces/inkscape"
   height="32"
   width="32"
   version="1.1"
   id="svg6"
   sodipodi:docname="lc_about.svg"
   inkscape:version="0.92.5 (2060ec1f9f, 2020-04-08)">
  <metadata
     id="metadata12">
    <rdf:RDF>
      <cc:Work
         rdf:about="">
        <dc:format>image/svg+xml</dc:format>
        <dc:type
           rdf:resource="http://purl.org/dc/dcmitype/StillImage" />
      </cc:Work>
    </rdf:RDF>
  </metadata>
  <defs
     id="defs10" />
  <sodipodi:namedview
     pagecolor="#ffffff"
     bordercolor="#666666"
     borderopacity="1"
     objecttolerance="10"
     gridtolerance="10"
     guidetolerance="10"
     inkscape:pageopacity="0"
     inkscape:pageshadow="2"
     inkscape:window-width="1366"
     inkscape:window-height="700"
     id="namedview8"
     showgrid="true"
     inkscape:zoom="14.75"
     inkscape:cx="12.341889"
     inkscape:cy="14.458923"
     inkscape:window-x="0"
     inkscape:window-y="0"
     inkscape:window-maximized="1"
     inkscape:current-layer="svg6">
    <inkscape:grid
       type="xygrid"
       id="grid822" />
  </sodipodi:namedview>
  <path
     style="fill:#0063b1"
     d="M 29,16 A 13,13 0 0 1 16,29 13,13 0 0 1 3,16 13,13 0 0 1 16,3 13,13 0 0 1 29,16 Z"
     id="circle2" />
  <path
     style="opacity:1;fill:#83beec;fill-opacity:1;stroke:none;stroke-width:1;stroke-linecap:round;stroke-linejoin:round;stroke-miterlimit:4;stroke-dasharray:none;stroke-opacity:0.50196078"
     d="M 28,16 A 12,12 0 0 1 16,28 12,12 0 0 1 4,16 12,12 0 0 1 16,4 12,12 0 0 1 28,16 Z"
     id="path824" />
  <path
     d="m17.64092 7.0019531c-1.550397-.085042-2.360227 2.5001408-.886894 3.2070309 1.195304.506672 2.496425-.7611987 2.204418-2.0273434-.090621-.6592922-.663724-1.2018651-1.317524-1.1796875zm-.664744 5.6855469c-.249696-.0212-.542459.07136-.859552.318359-1.519556.684048-2.789931 1.80118-4.116624 2.802735.166504.467839.354396.846655.753603.328125.494929-.304362 2.153332-1.638824 1.987395-.332031-.530993 2.41814-1.17706 4.810737-1.671257 7.236328-.516753 1.328119.65799 2.531651 1.883155 1.667968 1.30227-.554883 2.421553-1.459952 3.566373-2.289062-.156204-.395946-.260481-.965074-.692085-.447266-.566719.265868-1.805288 1.520158-2.035242.486328.476035-2.61841 1.358674-5.138797 1.922458-7.736328.389121-.895755.01088-1.971539-.738224-2.035156z"
     fill="#fff"
     id="path4" />
</svg>
